X:191
T:Lord Berkeley's Whim
M:C|
L:1/8
B:Thompson's Compleat Collection of 200 Favourite Country Dances, vol. 1 (London, 1757)
Z:Transcribed and edited by Flynn Titford-Mock, 2007
Z:abc's:AK/Fiddler's Companion
K:A
C2 E<A c<ec<A|B2 d<B F<BG<E|A2 E=G F<DC<B,|C<E c<B A2 A,2:|
|:c2 c<A c2 c<A|c<Ae<c A2c2|B2 B<F B2 B<F|G<AE<A C2 A,2:|
|:c2 (e/d/c) (e/d/c) (e/d/c)|eagf e2c2|d2 f<d f<d f<d|B<fe<d c2 A2:|
|:A2 E<C A2 E<C|D<BA<G A2 E2|A2 E<C A2 E<C|D2 E2 [A,4E4A4]:|

